dist/images/icons/icon-category-sandvich.svg

<svg width="44" height="45" viewBox="0 0 44 45" fill="none" xmlns="http://www.w3.org/2000/svg">
<g clip-path="url(#clip0_669_785)">
<path d="M41.7999 6.62968H40.3332V5.16298C40.3332 3.948 39.3482 2.96298 38.1332 2.96298H36.3865L35.3253 0.840753C35.0787 0.342144 34.5697 0.0274405 34.0134 0.0296749H32.9999C32.1899 0.0296749 31.5333 0.686323 31.5333 1.49637V2.96307H23.4666C22.2515 2.96307 21.2666 3.948 21.2666 5.16307V6.62968H19.7999C18.585 6.62968 17.5999 7.61469 17.5999 8.82968V10.2964C17.5999 11.1064 18.2566 11.7631 19.0666 11.7631H19.1444L20.0024 19.3398L16.4692 18.5097C16.2909 18.2354 16.1025 17.9634 15.8928 17.6964L14.6461 12.3306C14.5691 11.9988 14.2739 11.7638 13.9333 11.763H9.71956C7.73148 10.0111 5.38187 9.21906 3.6094 9.74044L2.53287 8.56714C2.12604 8.12301 1.48692 7.977 0.927639 8.20044C0.367413 8.41632 -0.00160307 8.95532 -5.61906e-05 9.55567V41.8444C0.00157662 43.0506 0.97903 44.028 2.18525 44.0297H38.1332C38.506 44.0294 38.8193 43.7496 38.8615 43.3792L42.4541 11.763H42.5333C43.3434 11.763 44 11.1063 44 10.2963V8.82968C43.9999 7.61469 43.015 6.62968 41.7999 6.62968ZM32.9999 1.49637H34.0134L34.7467 2.96307H32.9999V1.49637ZM22.7332 5.16298C22.7332 4.75796 23.0616 4.42967 23.4666 4.42967H38.1332C38.5383 4.42967 38.8666 4.75796 38.8666 5.16298V6.62968H22.7332V5.16298ZM20.6799 21.003L20.7262 21.0117L21.3187 21.1525L21.7162 25.3142C20.5644 24.4988 19.1864 24.0644 17.7753 24.0719C18.0469 22.778 17.9031 21.4315 17.3646 20.2241L20.6799 21.003ZM22.1129 27.4894L22.1224 27.4974C22.388 27.7432 22.6403 28.0032 22.8777 28.2762C23.7501 29.2497 24.3917 30.4076 24.7543 31.6634C24.8782 32.1009 24.9421 32.5531 24.9442 33.0077L18.0949 25.5379C19.6184 25.7085 21.0369 26.3975 22.1129 27.4894ZM14.385 18.1694V18.168C15.9676 19.9867 16.7046 22.1713 16.3548 23.6394L8.89164 15.5031C10.3972 15.1664 12.6866 16.2239 14.385 18.1694ZM13.3466 13.2297L13.9333 15.7267C13.344 15.2668 12.7017 14.8793 12.0201 14.5724C11.7429 14.1036 11.4329 13.6549 11.0924 13.2297H13.3466ZM9.66018 13.7753H9.6631C9.72394 13.845 9.77387 13.922 9.83248 13.9953C9.14404 13.9319 8.45087 14.0483 7.82094 14.3334L4.80617 11.0458C6.28026 11.0671 8.2038 12.104 9.66018 13.7753ZM30.737 42.1323C30.6235 42.3934 30.366 42.5626 30.0812 42.5631H23.4666H2.18525C1.7883 42.5631 1.46655 42.2413 1.46655 41.8444L1.45332 9.56307L16.1721 25.6113V25.615L24.8166 35.0391L24.8262 35.0501L29.5679 40.2215C29.5848 40.2435 29.6024 40.2655 29.6215 40.2868L30.6049 41.3589C30.7987 41.5675 30.8506 41.8711 30.737 42.1323ZM26.1976 34.3746C26.3318 33.9367 26.4 33.4811 26.3999 33.0231C26.7852 33.348 27.1442 33.7028 27.4736 34.0842C27.8832 34.5523 28.2469 35.0587 28.5596 35.5964C28.9879 36.3164 29.2906 37.104 29.455 37.9254L26.1976 34.3746ZM37.4784 42.5631H32.1361C32.4108 41.8032 32.2366 40.9535 31.6851 40.3631L30.9466 39.5564C31.0915 38.3288 30.8935 37.085 30.3746 35.9631H38.2286L37.4784 42.5631ZM38.3951 34.4964H29.5951C29.2941 34.0134 28.9568 33.554 28.586 33.1221C27.8643 32.2843 27.0171 31.5638 26.0743 30.9858C25.6434 29.6272 24.931 28.3745 23.9836 27.3096C23.7636 27.0603 23.5436 26.8278 23.3126 26.6041L22.7333 20.4933C22.7035 20.1806 22.4779 19.9218 22.1723 19.8494L21.5226 19.6954L21.3686 18.363H40.2292L38.3951 34.4964ZM40.3956 16.8964H21.2021L20.6213 11.7631H40.9786L40.3956 16.8964ZM42.5333 10.2964H19.0666V8.82968C19.0666 8.42465 19.3949 8.09637 19.7999 8.09637H41.7999C42.205 8.09637 42.5333 8.42465 42.5333 8.82968V10.2964Z" fill="black"/>
<path d="M31.1006 32.2965C31.1423 32.2965 31.1834 32.2907 31.2245 32.2892C31.2355 32.2892 31.2465 32.2965 31.2575 32.2965C31.2943 32.2943 31.3308 32.2891 31.3667 32.2811C32.5147 32.2036 33.5724 31.6315 34.2655 30.7133C35.1895 29.4151 35.4536 27.7598 34.9798 26.2385C34.8778 25.8587 34.7847 25.4861 34.6945 25.1261C34.1225 22.8329 33.5762 20.6703 31.2596 20.5728C31.2362 20.5728 31.2142 20.5684 31.1907 20.5684C31.1672 20.5684 31.1328 20.5633 31.1005 20.5633C28.5089 20.5633 26.3998 23.1952 26.3998 26.43C26.3998 29.6648 28.5089 32.2965 31.1006 32.2965ZM31.6682 22.1398C32.4264 22.4376 32.7601 23.4312 33.2719 25.4809C33.3636 25.8476 33.4589 26.2318 33.5652 26.6212C33.9163 27.7021 33.7448 28.8848 33.101 29.8214C32.8673 30.128 32.5682 30.3785 32.2254 30.5547C32.2006 29.2941 31.9524 28.0479 31.4921 26.8741C31.4188 26.6453 31.3454 26.4246 31.2809 26.2141C30.8542 24.8261 31.3542 23.0271 31.6682 22.1398ZM30.0922 22.2498C29.615 23.6662 29.5416 25.1875 29.8802 26.6432C29.9477 26.8632 30.0225 27.0913 30.1002 27.3281C30.4669 28.4472 30.9069 29.8002 30.7272 30.796C29.1198 30.5453 27.8665 28.684 27.8665 26.4298C27.8666 24.4828 28.8016 22.8299 30.0922 22.2498Z" fill="black"/>
<path d="M3.88139 38.5929L3.36293 39.1114C3.17232 39.2955 3.09584 39.5681 3.16296 39.8245C3.23007 40.081 3.43031 40.2812 3.68666 40.3483C3.9431 40.4154 4.21569 40.3389 4.39985 40.1483L4.91831 39.6298C5.19624 39.3421 5.19228 38.8847 4.90938 38.6018C4.62656 38.3189 4.16911 38.315 3.88139 38.5929Z" fill="black"/>
<path d="M10.8929 33.6561C11.1794 33.3696 11.1794 32.905 10.8929 32.6184C10.6064 32.3319 10.1418 32.3319 9.8552 32.6184L9.33673 33.1369C9.15137 33.3221 9.07892 33.5922 9.14664 33.8452C9.21436 34.0984 9.41202 34.2962 9.6651 34.364C9.91819 34.4319 10.1883 34.3597 10.3737 34.1745L10.8929 33.6561Z" fill="black"/>
<path d="M4.39995 31.778L3.88149 32.2965C3.69088 32.4806 3.61439 32.7532 3.68151 33.0097C3.74863 33.266 3.94886 33.4663 4.20521 33.5334C4.46165 33.6005 4.73425 33.524 4.91841 33.3334L5.43687 32.8149C5.71479 32.5272 5.71084 32.0698 5.42793 31.787C5.14511 31.504 4.68767 31.5001 4.39995 31.778Z" fill="black"/>
<path d="M4.39995 26.6446L3.88149 27.1631C3.69088 27.3473 3.61439 27.6199 3.68151 27.8763C3.74863 28.1327 3.94886 28.3329 4.20521 28.4C4.46165 28.4671 4.73425 28.3906 4.91841 28.2L5.43687 27.6816C5.71479 27.3938 5.71084 26.9364 5.42793 26.6536C5.14511 26.3708 4.68767 26.3668 4.39995 26.6446Z" fill="black"/>
<path d="M11 38.5929L10.4815 39.1114C10.2909 39.2955 10.2144 39.5681 10.2815 39.8245C10.3487 40.081 10.5489 40.2812 10.8053 40.3483C11.0617 40.4154 11.3343 40.3389 11.5184 40.1483L12.0369 39.6298C12.3148 39.3421 12.3109 38.8847 12.028 38.6018C11.7451 38.3189 11.2877 38.315 11 38.5929Z" fill="black"/>
<path d="M16.3481 38.5929L15.8297 39.1113C15.6391 39.2955 15.5626 39.5681 15.6297 39.8245C15.6968 40.0809 15.897 40.2812 16.1534 40.3482C16.4098 40.4153 16.6824 40.3388 16.8666 40.1482L17.385 39.6298C17.663 39.3421 17.659 38.8846 17.3761 38.6018C17.0932 38.319 16.6358 38.3149 16.3481 38.5929Z" fill="black"/>
</g>
<defs>
<clipPath id="clip0_669_785">
<rect width="44" height="44" fill="white" transform="translate(0 0.0297852)"/>
</clipPath>
</defs>
</svg>

<svg width="44" height="45" fill="none" xmlns="http://www.w3.org/2000/svg"><g clip-path="url(#clip0_669_785)" fill="#000"><path d="M41.8 6.63h-1.467V5.163a2.2 2.2 0 00-2.2-2.2h-1.747L35.326.841A1.457 1.457 0 0034.012.03H33c-.81 0-1.467.656-1.467 1.466v1.467h-8.066a2.2 2.2 0 00-2.2 2.2V6.63H19.8a2.2 2.2 0 00-2.2 2.2v1.466c0 .81.657 1.467 1.467 1.467h.077l.858 7.577-3.533-.83a11.105 11.105 0 00-.576-.814l-1.247-5.365a.733.733 0 00-.713-.568H9.72C7.73 10.011 5.382 9.219 3.61 9.74L2.532 8.567A1.448 1.448 0 00.928 8.2c-.56.216-.93.755-.928 1.356v32.288a2.188 2.188 0 002.185 2.186h35.948c.373 0 .686-.28.728-.65l3.593-31.617h.08c.81 0 1.466-.657 1.466-1.467V8.83a2.2 2.2 0 00-2.2-2.2zM33 1.496h1.013l.734 1.467H33V1.496zM22.733 5.163c0-.405.329-.733.734-.733h14.666c.405 0 .734.328.734.733V6.63H22.733V5.163zm-2.053 15.84l.046.009.593.14.397 4.162a6.758 6.758 0 00-3.94-1.242 6.28 6.28 0 00-.411-3.848l3.315.779zm1.433 6.486l.01.008c.265.246.517.506.755.78a8.686 8.686 0 011.876 3.386c.124.438.188.89.19 1.345l-6.85-7.47c1.524.17 2.943.86 4.019 1.951zm-7.728-9.32v-.001c1.583 1.819 2.32 4.003 1.97 5.471l-7.463-8.136c1.505-.337 3.795.72 5.493 2.666zm-1.038-4.94l.586 2.498a9.347 9.347 0 00-1.913-1.155 11.565 11.565 0 00-.928-1.342h2.255zm-3.687.546h.003c.06.07.11.147.17.22a3.99 3.99 0 00-2.012.338l-3.015-3.287c1.474.021 3.398 1.058 4.854 2.73zm21.077 28.357a.717.717 0 01-.656.431H2.185a.719.719 0 01-.718-.719l-.014-32.28 14.72 16.047v.004l8.644 9.424.01.011 4.74 5.172c.018.021.035.044.055.065l.983 1.072a.716.716 0 01.132.773zm-4.54-7.757a4.61 4.61 0 00.203-1.352c.385.325.744.68 1.074 1.061.41.468.773.975 1.086 1.512.428.72.73 1.508.895 2.33l-3.257-3.551zm11.281 8.188h-5.342c.275-.76.1-1.61-.45-2.2l-.74-.807a6.691 6.691 0 00-.571-3.593h7.854l-.75 6.6zm.917-8.067h-8.8a11.218 11.218 0 00-1.009-1.374 10.687 10.687 0 00-2.512-2.136 10.145 10.145 0 00-2.09-3.676c-.22-.25-.44-.482-.671-.706l-.58-6.11a.733.733 0 00-.56-.645l-.65-.154-.154-1.332h18.86l-1.834 16.133zm2-17.6H21.203l-.58-5.133H40.98l-.583 5.133zm2.138-6.6H19.067V8.83c0-.405.328-.734.733-.734h22c.405 0 .733.329.733.734v1.466z"/><path d="M31.1 32.297c.042 0 .083-.006.124-.008.011 0 .023.008.034.008a.692.692 0 00.109-.016 3.967 3.967 0 002.899-1.568 5.101 5.101 0 00.714-4.475c-.102-.38-.195-.752-.285-1.112-.572-2.293-1.119-4.456-3.435-4.553-.024 0-.046-.005-.07-.005-.023 0-.057-.005-.09-.005-2.591 0-4.7 2.632-4.7 5.867s2.109 5.867 4.7 5.867zm.568-10.157c.758.298 1.092 1.291 1.604 3.34.092.368.187.752.293 1.141a3.656 3.656 0 01-.464 3.2 2.59 2.59 0 01-.876.734 10.656 10.656 0 00-.733-3.68c-.073-.23-.147-.45-.211-.66-.427-1.389.073-3.188.387-4.075zm-1.576.11a8.05 8.05 0 00-.212 4.393c.068.22.143.448.22.685.367 1.12.807 2.472.627 3.468-1.607-.25-2.86-2.112-2.86-4.366 0-1.947.935-3.6 2.225-4.18zM3.881 38.593l-.518.518A.733.733 0 104.4 40.148l.518-.518a.733.733 0 00-1.037-1.037zm7.012-4.937a.734.734 0 00-1.038-1.038l-.518.519a.733.733 0 101.037 1.038l.519-.519zM4.4 31.778l-.519.519a.733.733 0 101.037 1.036l.519-.518A.733.733 0 004.4 31.778zm0-5.133l-.519.518A.733.733 0 104.918 28.2l.519-.518A.733.733 0 004.4 26.645zM11 38.593l-.518.518a.733.733 0 101.036 1.037l.519-.518A.733.733 0 0011 38.593zm5.348 0l-.518.518a.734.734 0 101.037 1.037l.518-.518a.733.733 0 00-1.037-1.037z"/></g><defs><clipPath id="clip0_669_785"><path fill="#fff" transform="translate(0 .03)" d="M0 0h44v44H0z"/></clipPath></defs></svg>
